libs/ui/packages/crypto-icons/src/svg/EDG.svg

<svg width="24" height="24" viewBox="0 0 24 24" fill="none">
<path d="M18.7426 9.37651V14.3685C18.7426 14.5905 18.7538 14.817 18.7036 15.0353C18.5899 15.5402 18.3283 15.9998 17.9521 16.3553C17.7751 16.5255 17.5546 16.6358 17.3438 16.7603C15.9136 17.5928 14.4878 18.4275 13.0583 19.2615C12.6218 19.4948 12.1058 19.5345 11.6213 19.4745C11.3683 19.4437 11.1237 19.3637 10.9013 19.239C9.39609 18.3615 7.89084 17.4818 6.38634 16.605C6.01884 16.4003 5.74434 16.0628 5.54259 15.6998C5.37759 15.3848 5.25684 15.0383 5.25684 14.6775V9.28801C5.28459 8.76301 5.51709 8.26576 5.84784 7.86901C5.98187 7.70131 6.14403 7.55818 6.32709 7.44601C7.72584 6.63151 9.12459 5.81401 10.5226 4.99651C10.7528 4.86901 10.9711 4.71301 11.2201 4.62751C11.6411 4.49602 12.0882 4.47077 12.5213 4.55401C12.7141 4.60801 12.9106 4.66501 13.0838 4.76701C14.6063 5.66026 16.1311 6.54676 17.6528 7.44076C18.0586 7.68076 18.3563 8.08201 18.5498 8.51026C18.6721 8.78026 18.7426 9.07801 18.7426 9.37651ZM11.9551 7.51951C11.632 7.99845 11.2581 8.44103 10.8398 8.83951C10.6208 9.04726 10.4101 9.27151 10.2848 9.54976C10.1843 9.74626 10.1168 9.96976 10.1453 10.1948C10.1791 10.4978 10.3951 10.7648 10.6756 10.8728C10.9606 10.9868 11.2831 10.9613 11.5666 10.8503C11.6176 10.8275 11.674 10.8197 11.7293 10.8278C11.6738 11.1833 11.4578 11.4833 11.2868 11.79L11.2943 11.841C11.4488 12.006 11.6116 12.162 11.7653 12.324C11.8043 12.3608 11.8403 12.4118 11.8943 12.429C12.0736 12.2903 12.2138 12.108 12.3788 11.955C12.4156 11.913 12.4913 11.8673 12.4516 11.802C12.2918 11.502 12.1148 11.1983 12.0646 10.8518C12.0946 10.7813 12.1793 10.8405 12.2296 10.8578C12.4958 10.9883 12.8176 11.0078 13.0958 10.9005C13.4746 10.7558 13.7101 10.3125 13.6253 9.91201C13.5608 9.55201 13.3703 9.22201 13.1123 8.97001C12.7148 8.56126 12.3331 8.12476 12.0616 7.61926C12.052 7.59599 12.0375 7.57505 12.0191 7.55785C12.0008 7.54064 11.9789 7.52757 11.9551 7.51951ZM9.23034 12.402C8.78034 12.6465 8.47959 13.1258 8.40534 13.635C8.30259 14.3498 8.72034 15.0968 9.36759 15.3893C9.77709 15.5655 10.2526 15.5618 10.6651 15.4005C10.8781 15.315 11.0603 15.1755 11.2171 15.0113C11.2763 14.9483 11.3626 14.892 11.3626 14.7953C11.3551 14.6985 11.2681 14.6453 11.2118 14.5793C11.1383 14.514 11.0798 14.4293 10.9958 14.3775C10.8608 14.3183 10.7798 14.466 10.6928 14.5395C10.3516 14.886 9.73734 14.889 9.38784 14.5508C9.27522 14.4448 9.19044 14.3127 9.141 14.1662C9.09155 14.0197 9.07896 13.8633 9.10434 13.7108C9.14634 13.4235 9.31734 13.1513 9.57234 13.0148C9.73734 12.9323 9.92259 12.8873 10.1048 12.8955C10.3621 12.912 10.5976 13.0485 10.7716 13.236C11.3656 13.827 11.9371 14.4398 12.5288 15.033C12.8423 15.3428 13.2766 15.5415 13.7191 15.5243C14.0566 15.5318 14.3813 15.3968 14.6558 15.2063C15.0601 14.925 15.3061 14.4368 15.3308 13.9433C15.3848 13.1618 14.8186 12.3735 14.0558 12.2228C13.5691 12.1238 13.0193 12.2258 12.6443 12.5723C12.3773 12.8153 12.1343 13.0883 11.8703 13.338C11.5981 13.1138 11.3828 12.8303 11.1166 12.6008C11.0029 12.4929 10.8708 12.4063 10.7266 12.345C10.6996 12.3278 10.6906 12.3195 10.6546 12.3053C10.4263 12.2083 10.1784 12.1665 9.93089 12.1833C9.68342 12.2001 9.44341 12.275 9.23034 12.402ZM13.0081 13.191C13.2023 12.9975 13.4768 12.8843 13.7506 12.9068C14.0476 12.915 14.3356 13.074 14.4931 13.3298C14.7391 13.7048 14.6671 14.244 14.3506 14.553C14.0251 14.8688 13.4671 14.9085 13.1168 14.61C12.8566 14.3888 12.6383 14.1248 12.3893 13.8923C12.3863 13.8758 12.3833 13.8443 12.3803 13.83C12.5881 13.614 12.8003 13.407 13.0081 13.191Z" fill="#2B1544"/>
<path d="M18.7423 9.37376V14.3658C18.7423 14.5878 18.7536 14.8143 18.7033 15.0325C18.5897 15.5375 18.328 15.997 17.9518 16.3525C17.7748 16.5228 17.5543 16.633 17.3436 16.7575C15.9133 17.59 14.4876 18.4248 13.0581 19.2588C12.6216 19.492 12.1056 19.5318 11.6211 19.4718C11.368 19.4409 11.1235 19.3609 10.9011 19.2363C9.39584 18.3588 7.89059 17.479 6.38609 16.6023C6.01859 16.3975 5.74409 16.06 5.54234 15.697C5.37734 15.382 5.25659 15.0355 5.25659 14.6748V9.28526C5.28434 8.76026 5.51684 8.26301 5.84759 7.86626C5.98162 7.69856 6.14379 7.55543 6.32684 7.44326C7.72559 6.62876 9.12434 5.81126 10.5223 4.99376C10.7526 4.86626 10.9708 4.71026 11.2198 4.62476C11.6409 4.49327 12.0879 4.46802 12.5211 4.55126C12.7138 4.60526 12.9103 4.66226 13.0836 4.76426C14.6061 5.65751 16.1308 6.54401 17.6526 7.43801C18.0583 7.67801 18.3561 8.07926 18.5496 8.50751C18.6718 8.77751 18.7423 9.07526 18.7423 9.37376ZM11.9548 7.51676C11.6318 7.99571 11.2579 8.43829 10.8396 8.83676C10.6206 9.04451 10.4098 9.26876 10.2846 9.54701C10.1841 9.74351 10.1166 9.96701 10.1451 10.192C10.1788 10.495 10.3948 10.762 10.6753 10.87C10.9603 10.984 11.2828 10.9585 11.5663 10.8475C11.6174 10.8247 11.6738 10.8169 11.7291 10.825C11.6736 11.1805 11.4576 11.4805 11.2866 11.7873L11.2941 11.8383C11.4486 12.0033 11.6113 12.1593 11.7651 12.3213C11.8041 12.358 11.8401 12.409 11.8941 12.4263C12.0733 12.2875 12.2136 12.1053 12.3786 11.9523C12.4153 11.9103 12.4911 11.8645 12.4513 11.7993C12.2916 11.4993 12.1146 11.1955 12.0643 10.849C12.0943 10.7785 12.1791 10.8378 12.2293 10.855C12.4956 10.9855 12.8173 11.005 13.0956 10.8978C13.4743 10.753 13.7098 10.3098 13.6251 9.90926C13.5606 9.54926 13.3701 9.21926 13.1121 8.96726C12.7146 8.55851 12.3328 8.12201 12.0613 7.61651C12.0517 7.59325 12.0373 7.57231 12.0189 7.5551C12.0005 7.53789 11.9787 7.52482 11.9548 7.51676ZM9.23009 12.3993C8.78009 12.6438 8.47934 13.123 8.40509 13.6323C8.30234 14.347 8.72009 15.094 9.36734 15.3865C9.77684 15.5628 10.2523 15.559 10.6648 15.3978C10.8778 15.3123 11.0601 15.1728 11.2168 15.0085C11.2761 14.9455 11.3623 14.8893 11.3623 14.7925C11.3548 14.6958 11.2678 14.6425 11.2116 14.5765C11.1381 14.5113 11.0796 14.4265 10.9956 14.3748C10.8606 14.3155 10.7796 14.4633 10.6926 14.5368C10.3513 14.8833 9.73709 14.8863 9.38759 14.548C9.27498 14.4421 9.1902 14.31 9.14075 14.1635C9.09131 14.017 9.07872 13.8605 9.10409 13.708C9.14609 13.4208 9.31709 13.1485 9.57209 13.012C9.73709 12.9295 9.92234 12.8845 10.1046 12.8928C10.3618 12.9093 10.5973 13.0458 10.7713 13.2333C11.3653 13.8243 11.9368 14.437 12.5286 15.0303C12.8421 15.34 13.2763 15.5388 13.7188 15.5215C14.0563 15.529 14.3811 15.394 14.6556 15.2035C15.0598 14.9223 15.3058 14.434 15.3306 13.9405C15.3846 13.159 14.8183 12.3708 14.0556 12.22C13.5688 12.121 13.0191 12.223 12.6441 12.5695C12.3771 12.8125 12.1341 13.0855 11.8701 13.3353C11.5978 13.111 11.3826 12.8275 11.1163 12.598C11.0027 12.4902 10.8706 12.4035 10.7263 12.3423C10.6993 12.325 10.6903 12.3168 10.6543 12.3025C10.4261 12.2055 10.1781 12.1637 9.93064 12.1805C9.68318 12.1973 9.44316 12.2723 9.23009 12.3993ZM13.0078 13.1883C13.2021 12.9948 13.4766 12.8815 13.7503 12.904C14.0473 12.9123 14.3353 13.0713 14.4928 13.327C14.7388 13.702 14.6668 14.2413 14.3503 14.5503C14.0248 14.866 13.4668 14.9058 13.1166 14.6073C12.8563 14.386 12.6381 14.122 12.3891 13.8895C12.3861 13.873 12.3831 13.8415 12.3801 13.8273C12.5878 13.6113 12.8001 13.4043 13.0078 13.1883Z" fill="#2B1544"/>
</svg>

<svg width="24" height="24" viewBox="0 0 24 24" fill="none"><path fill="#2b1544" d="M18.743 9.377v4.991c0 .223.01.449-.04.667a2.6 2.6 0 0 1-.75 1.32c-.178.17-.398.28-.61.405-1.43.833-2.855 1.667-4.285 2.502-.436.233-.952.273-1.437.212a2 2 0 0 1-.72-.235l-4.515-2.634c-.367-.205-.642-.542-.843-.905-.165-.315-.286-.662-.286-1.022v-5.39c.028-.525.26-1.022.59-1.419q.204-.253.48-.423a2655 2655 0 0 0 4.196-2.45c.23-.127.448-.283.697-.368a2.7 2.7 0 0 1 1.301-.074c.193.054.39.111.563.213 1.522.893 3.047 1.78 4.569 2.674.406.24.703.641.897 1.07.122.27.193.567.193.866M11.955 7.52a8 8 0 0 1-1.115 1.32c-.22.207-.43.432-.555.71-.1.196-.168.42-.14.645.034.303.25.57.53.678.286.114.608.088.892-.023a.3.3 0 0 1 .162-.022c-.055.355-.271.655-.442.962l.007.051c.155.165.318.321.471.483.04.037.075.088.13.105.179-.139.319-.321.484-.474.037-.042.112-.088.073-.153-.16-.3-.337-.604-.387-.95.03-.07.114-.011.165.006.266.13.588.15.866.042.379-.144.614-.588.53-.988a1.77 1.77 0 0 0-.514-.942c-.397-.409-.779-.845-1.05-1.35a.18.18 0 0 0-.107-.1M9.23 12.402c-.45.245-.75.724-.825 1.233a1.71 1.71 0 0 0 .963 1.754c.41.177.885.173 1.297.011a1.6 1.6 0 0 0 .552-.389c.06-.063.146-.119.146-.216-.008-.097-.095-.15-.151-.216-.074-.065-.132-.15-.216-.202-.135-.059-.216.089-.303.162-.341.347-.956.35-1.305.012a.94.94 0 0 1-.284-.84.95.95 0 0 1 .468-.696 1.1 1.1 0 0 1 .533-.12c.257.017.493.154.667.341.594.591 1.165 1.204 1.757 1.797.313.31.748.508 1.19.491.338.008.662-.127.937-.318.404-.281.65-.77.675-1.263.054-.781-.512-1.57-1.275-1.72-.487-.1-1.037.003-1.412.35-.267.242-.51.515-.774.765-.272-.224-.487-.508-.753-.737a1.3 1.3 0 0 0-.39-.256c-.027-.017-.036-.026-.072-.04a1.58 1.58 0 0 0-1.425.097m3.778.789a.96.96 0 0 1 .743-.284.91.91 0 0 1 .742.423c.246.375.174.914-.142 1.223-.326.316-.884.355-1.234.057-.26-.221-.479-.485-.728-.718l-.009-.062c.208-.216.42-.423.628-.639"/><path fill="#2b1544" d="M18.742 9.374v4.992c0 .222.012.448-.039.667a2.6 2.6 0 0 1-.751 1.32c-.177.17-.398.28-.608.404l-4.286 2.502c-.436.233-.952.273-1.437.213a2 2 0 0 1-.72-.236l-4.515-2.634c-.367-.204-.642-.542-.844-.905-.165-.315-.285-.661-.285-1.022v-5.39c.027-.525.26-1.022.59-1.419q.204-.252.48-.423a2632 2632 0 0 0 4.195-2.45c.23-.127.449-.283.698-.368a2.7 2.7 0 0 1 1.301-.074c.193.054.39.111.563.213 1.522.894 3.047 1.78 4.569 2.674.405.24.703.641.897 1.07.122.27.192.567.192.866m-6.787-1.857a8 8 0 0 1-1.115 1.32c-.22.208-.43.432-.555.71-.1.197-.168.42-.14.645.034.303.25.57.53.678.285.114.608.089.891-.022a.3.3 0 0 1 .163-.023c-.055.356-.271.656-.442.962l.007.051c.155.165.317.321.471.483.04.037.075.088.13.105.178-.139.319-.32.484-.474.036-.042.112-.088.072-.153-.16-.3-.336-.604-.387-.95.03-.07.115-.011.165.006.267.13.588.15.867.043.378-.145.614-.588.53-.989a1.77 1.77 0 0 0-.514-.942c-.397-.408-.78-.845-1.05-1.35a.18.18 0 0 0-.107-.1M9.23 12.399c-.45.245-.75.724-.825 1.233a1.71 1.71 0 0 0 .962 1.755c.41.176.885.172 1.298.01.213-.085.395-.224.552-.389.06-.062.145-.119.145-.215-.007-.097-.094-.15-.15-.216-.074-.066-.132-.15-.216-.202-.135-.06-.216.088-.303.162-.342.346-.956.35-1.305.011a.94.94 0 0 1-.284-.84.95.95 0 0 1 .468-.696c.165-.082.35-.128.533-.12.257.017.492.154.666.341.594.591 1.166 1.204 1.758 1.797.313.31.747.509 1.19.492.337.007.662-.128.937-.319.404-.28.65-.769.675-1.262.054-.782-.513-1.57-1.275-1.721-.487-.099-1.037.003-1.412.35-.267.242-.51.515-.774.765-.272-.224-.487-.508-.754-.737a1.3 1.3 0 0 0-.39-.256c-.027-.017-.036-.025-.072-.04a1.58 1.58 0 0 0-1.424.097m3.778.79a.96.96 0 0 1 .742-.285.91.91 0 0 1 .743.423c.246.375.174.914-.143 1.223-.325.316-.883.356-1.233.057-.26-.221-.479-.485-.728-.717l-.009-.063c.208-.216.42-.423.628-.639"/></svg>
